X:2
T:Dan J. Campbell's Reel
R:reel
C:John Campbell
D:John Campbell, Cape Breton Violin Music (1975-2006)
Z:Paul Stewart Cranford (P.S.C.), <http://www.cranfordpub.com>
L:1/8
M:C|
Q:333
K:Amix
a|e<A ed B2 AB|GABG g2 fa|e<A ed B2 AB|[1GBgB A/A/A A:|[2GBgB AAA:|
f|g2 fg aefd|e2 gd B2 AG|g2 fg aefd|e2 dB AAAf|
g2 fg aefd|e2 gd B2 AG|g2 fg aefd|cABG A2 A|]
